packages/icons/src/components/Icon/assets/small-outline/bullhorn.svg

<svg width="16" height="16" viewBox="0 0 16 16" fill="none" xmlns="http://www.w3.org/2000/svg">
<path fill-rule="evenodd" clip-rule="evenodd" d="M12.5854 1.15907C12.9154 1.03826 13.2809 1.20787 13.4017 1.53791C13.5013 1.81002 13.5944 2.08528 13.6808 2.36349C14.0498 3.55199 14.2962 4.79416 14.4054 6.07505C14.7738 6.472 15 7.00478 15 7.58999C15 8.17519 14.7738 8.70797 14.4054 9.10493C14.2962 10.3858 14.0498 11.628 13.6808 12.8165C13.5944 13.0947 13.5013 13.37 13.4017 13.6421C13.2809 13.9721 12.9154 14.1417 12.5854 14.0209C12.2554 13.9001 12.0857 13.5346 12.2065 13.2046C12.2369 13.1216 12.2666 13.0384 12.2957 12.9548C10.8707 12.2842 9.33314 11.8134 7.71869 11.5788C7.83324 11.9067 7.96153 12.2282 8.10287 12.5426C8.40183 13.2075 8.1861 14.0346 7.51326 14.4231L7.0492 14.691C6.35634 15.091 5.42975 14.8511 5.07378 14.0811C4.67062 13.2091 4.34613 12.2932 4.10947 11.3425C2.33938 11.0103 1 9.45655 1 7.58999C1 5.48126 2.70946 3.7718 4.81818 3.7718H5.34848C5.8282 3.7718 6.30293 3.75114 6.77187 3.71068C8.73306 3.54146 10.5946 3.02577 12.2957 2.22514C12.2666 2.14159 12.2369 2.05833 12.2065 1.9754C12.0857 1.64536 12.2554 1.27988 12.5854 1.15907ZM12.6692 3.45492C11.0138 4.2127 9.22071 4.72147 7.33812 4.9333C7.14661 5.78765 7.04545 6.67665 7.04545 7.58999C7.04545 8.50332 7.14661 9.39232 7.33811 10.2467C9.22071 10.4585 11.0138 10.9673 12.6692 11.7251C12.9181 10.7708 13.0829 9.7824 13.1552 8.76806C13.1829 8.37908 13.197 7.98623 13.197 7.58999C13.197 7.19374 13.1829 6.80089 13.1552 6.41191C13.0829 5.39757 12.9181 4.40915 12.6692 3.45492ZM6.01739 10.1479C5.85678 9.31959 5.77273 8.46434 5.77273 7.58999C5.77273 6.71563 5.85678 5.86038 6.0174 5.03205C5.79542 5.04035 5.57243 5.04453 5.34848 5.04453H4.81818C3.41237 5.04453 2.27273 6.18417 2.27273 7.58999C2.27273 8.9958 3.41237 10.1354 4.81818 10.1354H5.34848C5.57243 10.1354 5.79542 10.1396 6.01739 10.1479ZM5.4429 11.4084C5.64847 12.1473 5.91225 12.8619 6.22902 13.547C6.24236 13.5759 6.2644 13.5949 6.29655 13.6045C6.33065 13.6146 6.37255 13.612 6.41283 13.5888L6.87689 13.3208C6.9431 13.2826 6.99304 13.1778 6.94207 13.0645C6.70595 12.5393 6.50273 11.9961 6.33506 11.4375C6.03977 11.4199 5.74232 11.4101 5.4429 11.4084Z" fill="black"/>
</svg>

<svg xmlns="http://www.w3.org/2000/svg" width="16" height="16" fill="none" viewBox="0 0 16 16">
    <path fill="#000" fill-rule="evenodd" d="M12.585 1.16a.636.636 0 0 1 .817.378 17.5 17.5 0 0 1 1.003 4.537c.369.397.595.93.595 1.515a2.22 2.22 0 0 1-.595 1.515 17.5 17.5 0 0 1-1.003 4.537.636.636 0 0 1-1.195-.437l.089-.25a16.2 16.2 0 0 0-4.577-1.376q.172.492.384.964c.299.665.083 1.492-.59 1.88l-.464.268c-.693.4-1.62.16-1.975-.61a15.4 15.4 0 0 1-.965-2.738 3.82 3.82 0 0 1 .71-7.571h.53q.72 0 1.423-.061a16.2 16.2 0 0 0 5.524-1.486l-.09-.25a.636.636 0 0 1 .38-.816m.084 2.295a17.5 17.5 0 0 1-5.33 1.478 12 12 0 0 0-.294 2.657c0 .913.102 1.802.293 2.657 1.883.212 3.676.72 5.331 1.478a16.3 16.3 0 0 0 .528-4.135q0-.595-.042-1.178a16.3 16.3 0 0 0-.486-2.957m-6.652 6.693a13.4 13.4 0 0 1 0-5.116q-.333.012-.669.013h-.53a2.545 2.545 0 0 0 0 5.09h.53q.336 0 .67.013m-.574 1.26a14 14 0 0 0 .786 2.139.1.1 0 0 0 .068.057c.034.01.076.008.116-.015l.464-.268c.066-.038.116-.143.065-.256a13 13 0 0 1-.607-1.627 17 17 0 0 0-.892-.03" clip-rule="evenodd"/>
</svg>
